!!!!SEGMENT: pl-kk--kk-i-1--015_anonim--offertorium-assumptionis-assumpta-est-maria.krn
!!!cenid: 15xx:728
!!!COM: Anonim
!!!COM-rismid: pe30004985
!!!CDT:
!!!CNT:
!!!OTL: Offertorium Assumptionis/Assumpta est Maria
!!!PDT:
!!!AGN:
!!!SMS-siglum: PL-Kk
!!!SMS-shelfmark: Kk.I.1
!!!SMS-shelfwork: 015 W
!!!SMS-variant:
!!!SMS-altvar:
!!!NIFC-rismid: 300257969
!!!URL-scan: http://repozytorium.nifc.pl/skany/pl-kk-nut--i-1
!!!ONB-nifc: UWAGA: Cantus (brak), Altus (brak), Tenor (s. 87v-88r, skan 0477), Bassus (brak).
!!!key: F:lyd
**kern	**kern	**text	**kern	**kern
*	*stria6	*	*	*
*group1	*group1	*	*group1	*group1
*part4	*part3	*part3	*part2	*part1
*staff4	*staff3	*staff3	*staff2	*staff1
*I"BASSVS	*I"TENOR	*	*I"ALTVS	*I"CANTVS
*I'[B]	*I'[T]	*	*I'[A]	*I'[S]
*Ibass	*Itenor	*	*Ialto	*Isoprn
*ICvox	*ICvox	*	*ICvox	*ICvox
*clefF4	*clefC4	*	*clefC4	*clefC3
*k[]	*k[]	*	*k[]	*k[]
*F:lyd	*F:lyd	*	*F:lyd	*F:lyd
=1-	=1-	=1-	=1-	=1-
!	!LO:TX:a:i:t=Offertorium Aſsumptionis.	!	!	!
!	!LO:TX:t=P:problem:sześciolinia	!	!	!
0ryy	(>1F	AS-	0ryy	0ryy
.	1G)	.	.	.
=2-	=2-	=2-	=2-	=2-
0ryy	1G	-sum-	0ryy	0ryy
.	1A	.	.	.
=3-	=3-	=3-	=3-	=3-
0ryy	(>1c	.	0ryy	0ryy
.	1A)	.	.	.
=4-	=4-	=4-	=4-	=4-
0ryy	1G	.	0ryy	0ryy
.	1F	.	.	.
=5-	=5-	=5-	=5-	=5-
0ryy	1G,>	-pta	0ryy	0ryy
.	1G,>	est	.	.
=6-	=6-	=6-	=6-	=6-
0ryy	1A	Ma-	0ryy	0ryy
.	1G	.	.	.
=7-	=7-	=7-	=7-	=7-
0ryy	1A	.	0ryy	0ryy
.	1c	.	.	.
=8-	=8-	=8-	=8-	=8-
0ryy	(>1d	.	0ryy	0ryy
.	1c)	.	.	.
=9-	=9-	=9-	=9-	=9-
0ryy	1A	-ri-	0ryy	0ryy
.	1G	.	.	.
!	!LO:SIC:v:t=custos F	!	!	!
!	!LO:LB:g=original	!	!	!
=10-	=10-	=10-	=10-	=10-
0ryy	1F	.	0ryy	0ryy
.	1A	.	.	.
=11-	=11-	=11-	=11-	=11-
0ryy	1A,>	-a	0ryy	0ryy
.	1A,>	in	.	.
=12-	=12-	=12-	=12-	=12-
0ryy	(>1c	cae-	0ryy	0ryy
.	1A)	.	.	.
=13-	=13-	=13-	=13-	=13-
0ryy	1F	.	0ryy	0ryy
.	1G	.	.	.
=14-	=14-	=14-	=14-	=14-
0ryy	(>1A	.	0ryy	0ryy
.	1G)	.	.	.
=15-	=15-	=15-	=15-	=15-
0ryy	1E	.	0ryy	0ryy
.	1F	.	.	.
=16-	=16-	=16-	=16-	=16-
0ryy	1D	.	0ryy	0ryy
.	1F	.	.	.
=17-	=17-	=17-	=17-	=17-
0ryy	1C	.	0ryy	0ryy
.	1D	.	.	.
=18-	=18-	=18-	=18-	=18-
0ryy	1E	.	0ryy	0ryy
.	1F	.	.	.
=19-	=19-	=19-	=19-	=19-
0ryy	1G	.	0ryy	0ryy
.	1A	.	.	.
!	!LO:SIC:v:t=custos c	!	!	!
!	!LO:LB:g=original	!	!	!
=20-	=20-	=20-	=20-	=20-
0ryy	1c	.	0ryy	0ryy
.	1c	.	.	.
=21-	=21-	=21-	=21-	=21-
0ryy	(>1A	-lum	0ryy	0ryy
.	1G,>)	.	.	.
=22-	=22-	=22-	=22-	=22-
0ryy	1G	gau-	0ryy	0ryy
.	1A	.	.	.
=23-	=23-	=23-	=23-	=23-
0ryy	(>1c	.	0ryy	0ryy
.	1B)	.	.	.
=24-	=24-	=24-	=24-	=24-
0ryy	(>1c	.	0ryy	0ryy
.	1G)	.	.	.
=25-	=25-	=25-	=25-	=25-
0ryy	1A	.	0ryy	0ryy
.	1c	.	.	.
=26-	=26-	=26-	=26-	=26-
0ryy	1d	.	0ryy	0ryy
.	(>1e	.	.	.
=27-	=27-	=27-	=27-	=27-
0ryy	1c)	.	0ryy	0ryy
.	1c	.	.	.
=28-	=28-	=28-	=28-	=28-
0ryy	1A,	-dent	0ryy	0ryy
.	1G	An-	.	.
=29-	=29-	=29-	=29-	=29-
0ryy	1E	.	0ryy	0ryy
.	1C	.	.	.
=30-	=30-	=30-	=30-	=30-
0ryy	1E	.	0ryy	0ryy
.	1G	.	.	.
=31-	=31-	=31-	=31-	=31-
0ryy	(>1A	.	0ryy	0ryy
.	1G)	.	.	.
!	!LO:LB:g=original	!	!	!
=32-	=32-	=32-	=32-	=32-
0ryy	1F	-ge-	0ryy	0ryy
.	1F	-li:	.	.
=33-	=33-	=33-	=33-	=33-
0ryy	1G,	.	0ryy	0ryy
.	1G	col-	.	.
=34-	=34-	=34-	=34-	=34-
0ryy	(>1A	-lau-	0ryy	0ryy
.	1B)	.	.	.
=35-	=35-	=35-	=35-	=35-
0ryy	1c	-dan-	0ryy	0ryy
.	1G	.	.	.
=36-	=36-	=36-	=36-	=36-
0ryy	1A	.	0ryy	0ryy
.	1c	.	.	.
=37-	=37-	=37-	=37-	=37-
0ryy	1d	.	0ryy	0ryy
.	(>1e	.	.	.
=38-	=38-	=38-	=38-	=38-
0ryy	1d)	.	0ryy	0ryy
.	1B	.	.	.
=39-	=39-	=39-	=39-	=39-
0ryy	1c	.	0ryy	0ryy
.	(>1d	.	.	.
=40-	=40-	=40-	=40-	=40-
0ryy	1c)	.	0ryy	0ryy
.	1A	.	.	.
=41-	=41-	=41-	=41-	=41-
0ryy	1c	.	0ryy	0ryy
.	1G	.	.	.
=42-	=42-	=42-	=42-	=42-
0ryy	1G	-tes	0ryy	0ryy
!	!LO:SIC:v:t=custos G	!	!	!
!	!LO:PB:g=original	!	!	!
.	1G	be-	.	.
=43-	=43-	=43-	=43-	=43-
0ryy	1G	-ne-	0ryy	0ryy
.	1A	.	.	.
=44-	=44-	=44-	=44-	=44-
0ryy	(>1G	-di-	0ryy	0ryy
.	1F)	.	.	.
=45-	=45-	=45-	=45-	=45-
0ryy	1G	.	0ryy	0ryy
.	1F	.	.	.
=46-	=46-	=46-	=46-	=46-
0ryy	1E	.	0ryy	0ryy
.	1F	.	.	.
=47-	=47-	=47-	=47-	=47-
0ryy	1G	.	0ryy	0ryy
.	(>1A	.	.	.
=48-	=48-	=48-	=48-	=48-
0ryy	1F)	.	0ryy	0ryy
.	1D	.	.	.
=49-	=49-	=49-	=49-	=49-
0ryy	1G	.	0ryy	0ryy
.	1F	.	.	.
=50-	=50-	=50-	=50-	=50-
0ryy	1G	.	0ryy	0ryy
.	1G,>	-cunt	.	.
=51-	=51-	=51-	=51-	=51-
0ryy	1G	Do-	0ryy	0ryy
.	(>1c	.	.	.
=52-	=52-	=52-	=52-	=52-
0ryy	1B)	.	0ryy	0ryy
.	1G	.	.	.
=53-	=53-	=53-	=53-	=53-
0ryy	(>1A	.	0ryy	0ryy
.	1F)	.	.	.
!	!LO:SIC:v:t=custos A	!	!	!
!	!LO:LB:g=original	!	!	!
=54-	=54-	=54-	=54-	=54-
0ryy	1A	.	0ryy	0ryy
.	(>1c	.	.	.
=55-	=55-	=55-	=55-	=55-
0ryy	1G)	.	0ryy	0ryy
.	(>1A	.	.	.
=56-	=56-	=56-	=56-	=56-
0ryy	1G)	.	0ryy	0ryy
.	1F	-mi-	.	.
=57-	=57-	=57-	=57-	=57-
0ryy	1G	.	0ryy	0ryy
.	1G,>	-num	.	.
=58-	=58-	=58-	=58-	=58-
0ryy	1G	Al-	0ryy	0ryy
.	[>1c	-le-	.	.
=59-	=59-	=59-	=59-	=59-
0ryy	1c]	.	0ryy	0ryy
.	1d	.	.	.
=60-	=60-	=60-	=60-	=60-
0ryy	1c	.	0ryy	0ryy
.	1B	.	.	.
=61-	=61-	=61-	=61-	=61-
0ryy	1G	.	0ryy	0ryy
!	!LO:TX:t=P:problem:wysokość niejednoznaczna	!	!	!
.	1B	.	.	.
=62-	=62-	=62-	=62-	=62-
0ryy	1G	.	0ryy	0ryy
.	(>1c	.	.	.
=63-	=63-	=63-	=63-	=63-
0ryy	1B)	.	0ryy	0ryy
.	1A	.	.	.
=64-	=64-	=64-	=64-	=64-
0ryy	(>1c	.	0ryy	0ryy
.	1G)	.	.	.
!	!LO:LB:g=original	!	!	!
=65-	=65-	=65-	=65-	=65-
0ryy	1G	-lu-	0ryy	0ryy
.	(>1A	.	.	.
=66-	=66-	=66-	=66-	=66-
0ryy	1G)	.	0ryy	0ryy
.	1G	-ia	.	.
=:|!-	=:|!-	=:|!-	=:|!-	=:|!-
*-	*-	*-	*-	*-
!!!system-decoration: [(g1)]
!!!RDF**kern: > = above
!!!RDF**kern: < = below
!!!RDF**kern: l = terminal long
!!!AIN: 1 alto 1 bass 1 soprn 1 tenor
!!!ENC: Mateusz Solarz
!!!END: 2022-02-22
!!!EED: Jędrzej Mróz
!!!EST: 2022-03-01
